X:18
T:T013A- The Miser
S:from The Merry Medley, 1744
Q:1/4=120
L:1/8
M:6/8
K:D mixolydian
G2GG2G|GAG Bcd|G2G GBG|FGA AFD|\
G2G GBG|GBG Bcd|gfe dcB|ABG FED::\
Bcd ded|ded dcB|cde dfe|efe edc|\
Bcd def|gfe def|gfe dcB|ABG FED|]

